dist/img/icons/clients/wallet.svg

<svg width="28" height="29" viewBox="0 0 28 29" fill="none" xmlns="http://www.w3.org/2000/svg">
<g clip-path="url(#clip0)">
<path d="M26.6652 16.4083H26.2462V12.634C26.2462 12.0365 25.9488 11.5074 25.4946 11.186V10.6721C25.4946 9.92665 24.8882 9.32022 24.1427 9.32022H23.8299L25.0269 7.56366C25.4282 6.97489 25.2756 6.1694 24.6868 5.7681L16.564 0.232634C16.2788 0.0382201 15.9351 -0.0335299 15.5958 0.0308373C15.2567 0.0950951 14.9628 0.28754 14.7685 0.57279L7.75748 10.8608H5.8065L6.2772 6.09584C6.2825 6.04214 6.31739 5.9956 6.36606 5.97728C6.97249 5.74863 7.49804 5.32163 7.84585 4.77498C7.87325 4.73194 7.92493 4.70733 7.97842 4.71274L11.0385 5.01506C11.2579 5.03633 11.453 4.87653 11.4747 4.65724C11.4964 4.43794 11.3362 4.24265 11.1169 4.22099L8.05684 3.91868C7.70164 3.8839 7.36291 4.04758 7.1726 4.34661C6.91688 4.74856 6.53046 5.06247 6.08459 5.23058C5.74897 5.35713 5.51852 5.65856 5.48308 6.01737L5.00467 10.8607H4.49592L5.24032 3.32456C5.26712 3.05331 5.50922 2.85402 5.7808 2.8812L11.9645 3.49206C12.1838 3.51323 12.3791 3.35354 12.4008 3.13424C12.4224 2.91495 12.2623 2.71966 12.043 2.698L5.85922 2.08714C5.15025 2.0172 4.51626 2.537 4.44621 3.24608L3.84617 9.32022H2.82434C2.07895 9.32022 1.47246 9.92665 1.47246 10.6721V11.0226C0.862643 11.3034 0.438049 11.9198 0.438049 12.634V26.2345C0.438049 27.2123 1.23353 28.0078 2.2114 28.0078H24.4729C25.4507 28.0078 26.2462 27.2123 26.2462 26.2345V22.4603H26.6652C27.1598 22.4603 27.5621 22.058 27.5621 21.5634V17.3052C27.5622 16.8106 27.1598 16.4083 26.6652 16.4083ZM24.1427 10.1182C24.4482 10.1182 24.6967 10.3667 24.6967 10.6721V10.8754C24.6233 10.8661 24.5487 10.8608 24.4729 10.8608H22.78L23.286 10.1182H24.1427ZM15.4278 1.0221C15.5022 0.913001 15.6146 0.839392 15.7443 0.814783C15.7753 0.808931 15.8064 0.805978 15.8373 0.805978C15.9356 0.805978 16.0316 0.8354 16.1147 0.891947L24.2374 6.42742C24.4626 6.58092 24.5211 6.88903 24.3676 7.11423L21.8145 10.8607H21.2017L22.4535 9.02387C22.6565 8.72599 22.6732 8.34689 22.497 8.03446C22.2628 7.61938 22.1679 7.13064 22.2297 6.6582C22.2756 6.30672 22.121 5.96361 21.8261 5.76269L17.6153 2.89313C17.3204 2.69215 16.9444 2.67372 16.6341 2.84506C16.2171 3.07529 15.7275 3.16569 15.2556 3.09963C14.9056 3.05052 14.5506 3.20856 14.3506 3.50196L9.33581 10.8607H8.7231L15.4278 1.0221ZM15.6035 7.79739C13.8661 7.79739 12.4398 9.15216 12.3236 10.8607H10.3013L15.0099 3.95133C15.0099 3.95133 15.0099 3.95133 15.0099 3.95133C15.0367 3.91201 15.081 3.8886 15.1266 3.8886C15.1326 3.8886 15.1387 3.88904 15.1448 3.88986C15.7867 3.97966 16.4525 3.85683 17.0197 3.54363C17.0644 3.51892 17.1217 3.52247 17.1659 3.55255L21.3767 6.42216C21.4208 6.45224 21.445 6.50431 21.4385 6.55484C21.3544 7.19736 21.4836 7.86203 21.802 8.42652C21.8276 8.47185 21.8245 8.52993 21.7942 8.5745L20.2362 10.8607H18.8836C18.7673 9.15216 17.3411 7.79739 15.6035 7.79739ZM18.0835 10.8608H13.1236C13.2379 9.59262 14.3062 8.59539 15.6035 8.59539C16.901 8.59534 17.9693 9.59262 18.0835 10.8608ZM2.27041 10.6721C2.27041 10.3666 2.51885 10.1181 2.82434 10.1181H3.76737L3.69403 10.8607H2.27041V10.6721ZM1.23599 12.634C1.23599 12.0962 1.67355 11.6587 2.2114 11.6587H24.4729C25.0107 11.6587 25.4482 12.0962 25.4482 12.634V13.7411H1.23599V12.634ZM25.4482 26.2345C25.4482 26.7723 25.0107 27.2099 24.4729 27.2099H2.2114C1.67355 27.2099 1.23599 26.7723 1.23599 26.2345V25.1274H3.38751C3.6079 25.1274 3.78646 24.9488 3.78646 24.7285C3.78646 24.5081 3.60785 24.3295 3.38751 24.3295H1.23599V14.539H25.4482V16.4083H21.6548H21.6547C20.4595 16.4083 19.4241 17.105 18.9328 18.1135C18.9311 18.1169 18.9293 18.1201 18.9276 18.1235C18.9234 18.1321 18.9198 18.141 18.9158 18.1497C18.8572 18.274 18.8064 18.4027 18.765 18.5354C18.7649 18.5358 18.7648 18.5362 18.7646 18.5365C18.6763 18.8203 18.6287 19.1218 18.6287 19.4343C18.6287 21.1029 19.9861 22.4603 21.6547 22.4603H21.6547H25.4482V24.3295H5.94218C5.72179 24.3295 5.54324 24.5081 5.54324 24.7285C5.54324 24.9488 5.72185 25.1274 5.94218 25.1274H25.4482V26.2345ZM26.7642 21.5634C26.7642 21.618 26.7198 21.6624 26.6652 21.6624H21.6548C20.8102 21.6624 20.0738 21.1899 19.696 20.4954C19.6789 20.4639 19.6625 20.4318 19.6468 20.3994C19.6154 20.3345 19.5871 20.2678 19.5622 20.1996C19.4745 19.9608 19.4268 19.703 19.4268 19.4343C19.4268 19.1656 19.4746 18.9078 19.5622 18.669C19.5872 18.6008 19.6155 18.5341 19.6468 18.4692C19.6625 18.4367 19.6789 18.4047 19.696 18.3731C20.0738 17.6787 20.8102 17.2062 21.6548 17.2062H26.6652C26.7198 17.2062 26.7642 17.2506 26.7642 17.3052V21.5634Z" fill="#236EFF"/>
<path d="M21.748 17.8157C20.8554 17.8157 20.1293 18.5419 20.1293 19.4344C20.1293 20.327 20.8554 21.0531 21.748 21.0531C22.6406 21.0531 23.3668 20.327 23.3668 19.4344C23.3668 18.5419 22.6406 17.8157 21.748 17.8157ZM21.748 20.2552C21.2954 20.2552 20.9272 19.887 20.9272 19.4344C20.9272 18.9819 21.2954 18.6136 21.748 18.6136C22.2006 18.6136 22.5688 18.9818 22.5688 19.4344C22.5688 19.887 22.2006 20.2552 21.748 20.2552Z" fill="#236EFF"/>
</g>
<defs>
<clipPath id="clip0">
<rect width="28" height="28" fill="white" transform="translate(0 0.0078125)"/>
</clipPath>
</defs>
</svg>

<svg width="28" height="29" fill="none" xmlns="http://www.w3.org/2000/svg"><g clip-path="url(#clip0)" fill="#236EFF"><path d="M26.665 16.408h-.419v-3.774a1.77 1.77 0 00-.751-1.448v-.514c0-.745-.607-1.352-1.352-1.352h-.313l1.197-1.756a1.294 1.294 0 00-.34-1.796L16.564.233a1.283 1.283 0 00-.968-.202c-.34.064-.633.257-.828.542L7.758 10.86H5.805l.471-4.765a.14.14 0 01.09-.119 3.033 3.033 0 001.479-1.202.14.14 0 01.132-.062l3.06.302a.4.4 0 00.079-.794l-3.06-.302a.934.934 0 00-.884.428 2.23 2.23 0 01-1.088.884.933.933 0 00-.602.786l-.478 4.844h-.51l.745-7.536a.494.494 0 01.54-.444l6.184.611a.4.4 0 00.079-.794l-6.184-.61a1.294 1.294 0 00-1.413 1.158l-.6 6.074H2.824c-.745 0-1.352.607-1.352 1.352v.35a1.776 1.776 0 00-1.034 1.612v13.6c0 .978.796 1.774 1.773 1.774h22.262c.978 0 1.773-.796 1.773-1.773V22.46h.42a.898.898 0 00.896-.897v-4.258a.898.898 0 00-.897-.897zm-2.522-6.29c.305 0 .554.249.554.554v.203a1.778 1.778 0 00-.224-.014H22.78l.506-.743h.857zm-8.715-9.096a.491.491 0 01.687-.13l8.122 5.535a.495.495 0 01.13.687l-2.553 3.747h-.612l1.251-1.837a.933.933 0 00.044-.99 2.23 2.23 0 01-.267-1.376.933.933 0 00-.404-.895l-4.21-2.87a.933.933 0 00-.982-.048 2.23 2.23 0 01-1.378.255.945.945 0 00-.905.402l-5.015 7.359h-.613l6.705-9.839zm.175 6.775a3.292 3.292 0 00-3.28 3.064h-2.022l4.709-6.91a.143.143 0 01.135-.061 3.033 3.033 0 001.875-.346.14.14 0 01.146.009l4.21 2.87a.14.14 0 01.063.132 3.032 3.032 0 00.363 1.872.141.141 0 01-.008.148l-1.558 2.286h-1.352a3.292 3.292 0 00-3.28-3.064zm2.48 3.064h-4.96a2.494 2.494 0 012.48-2.266c1.298 0 2.366.998 2.48 2.266zM2.27 10.672c0-.305.249-.554.554-.554h.943l-.073.743H2.27v-.189zm-1.034 1.962c0-.538.438-.975.975-.975h22.262c.538 0 .975.437.975.975v1.107H1.236v-1.107zm24.212 13.6a.976.976 0 01-.975.976H2.21a.977.977 0 01-.975-.976v-1.107h2.152a.399.399 0 100-.797H1.236v-9.791h24.212v1.87h-3.793a3.03 3.03 0 00-2.722 1.704l-.005.01-.012.027a3 3 0 00-.151.385v.002a3.03 3.03 0 002.89 3.924h3.793v1.869H5.942a.399.399 0 100 .797h19.506v1.108zm1.316-4.67a.1.1 0 01-.099.098h-5.01a2.23 2.23 0 01-1.959-3.289 2.23 2.23 0 011.959-1.167h5.01a.1.1 0 01.1.1v4.257z"/><path d="M21.748 17.816a1.62 1.62 0 00-1.619 1.618 1.62 1.62 0 001.619 1.62 1.62 1.62 0 001.619-1.62 1.62 1.62 0 00-1.619-1.618zm0 2.44a.822.822 0 010-1.642.822.822 0 010 1.641z"/></g><defs><clipPath id="clip0"><path fill="#fff" transform="translate(0 .008)" d="M0 0h28v28H0z"/></clipPath></defs></svg>
